src/assets/icons/letters,fancy,serif-h.svg

<svg width="48" height="48" viewBox="0 0 48 48" fill="none" xmlns="http://www.w3.org/2000/svg">
<path d="M36.6291 30.882C36.6291 31.8447 36.6671 32.63 36.7431 33.238C36.8444 33.8207 37.0344 34.2767 37.3131 34.606C37.6171 34.91 38.0224 35.1253 38.5291 35.252C39.0611 35.3787 39.7577 35.4547 40.6191 35.48V37H26.6731V35.48C27.6104 35.4547 28.3577 35.3787 28.9151 35.252C29.4977 35.1253 29.9411 34.91 30.2451 34.606C30.5744 34.302 30.7897 33.8713 30.8911 33.314C30.9924 32.7567 31.0431 32.0347 31.0431 31.148V23.206H16.9451V30.882C16.9451 31.8447 16.9957 32.63 17.0971 33.238C17.1984 33.8207 17.4011 34.2767 17.7051 34.606C18.0091 34.91 18.4397 35.1253 18.9971 35.252C19.5797 35.3787 20.3397 35.4547 21.2771 35.48V37H7.36906V35.48C8.2304 35.4547 8.9144 35.3787 9.42106 35.252C9.95306 35.1253 10.3584 34.91 10.6371 34.606C10.9157 34.302 11.1057 33.8713 11.2071 33.314C11.3084 32.7567 11.3591 32.0347 11.3591 31.148V13.592C11.3591 12.7053 11.3084 11.996 11.2071 11.464C11.1311 10.9067 10.9664 10.476 10.7131 10.172C10.4597 9.84267 10.0924 9.62733 9.61106 9.526C9.15506 9.39933 8.54706 9.31067 7.78706 9.26V7.74H20.8971V9.26C20.0357 9.28533 19.3391 9.36133 18.8071 9.488C18.3004 9.61467 17.9077 9.84267 17.6291 10.172C17.3504 10.5013 17.1604 10.9573 17.0591 11.54C16.9831 12.1227 16.9451 12.8953 16.9451 13.858V20.85H31.0431V13.592C31.0431 12.7053 30.9924 11.996 30.8911 11.464C30.7897 10.9067 30.5997 10.476 30.3211 10.172C30.0424 9.84267 29.6371 9.62733 29.1051 9.526C28.5984 9.39933 27.9144 9.31067 27.0531 9.26V7.74H40.2011V9.26C39.4411 9.28533 38.8204 9.36133 38.3391 9.488C37.8831 9.61467 37.5284 9.84267 37.2751 10.172C37.0217 10.5013 36.8444 10.9573 36.7431 11.54C36.6671 12.1227 36.6291 12.8953 36.6291 13.858V30.882Z" fill="black"/>
</svg>

<svg xmlns="http://www.w3.org/2000/svg" width="48" height="48" fill="none" viewBox="0 0 48 48">
  <path fill="#000" d="M36.63 30.882c0 .963.037 1.748.113 2.356.101.583.291 1.039.57 1.368.304.304.71.52 1.216.646.532.127 1.229.203 2.09.228V37H26.673v-1.52c.937-.025 1.685-.101 2.242-.228.583-.127 1.026-.342 1.33-.646.33-.304.545-.735.646-1.292.101-.557.152-1.28.152-2.166v-7.942H16.945v7.676c0 .963.05 1.748.152 2.356.101.583.304 1.039.608 1.368.304.304.735.52 1.292.646.583.127 1.343.203 2.28.228V37H7.37v-1.52c.861-.025 1.545-.101 2.052-.228.532-.127.937-.342 1.216-.646.279-.304.469-.735.57-1.292.101-.557.152-1.28.152-2.166V13.592c0-.887-.05-1.596-.152-2.128-.076-.557-.24-.988-.494-1.292-.253-.33-.62-.545-1.102-.646-.456-.127-1.064-.215-1.824-.266V7.74h13.11v1.52c-.861.025-1.558.101-2.09.228-.507.127-.9.355-1.178.684-.279.33-.469.785-.57 1.368-.076.583-.114 1.355-.114 2.318v6.992h14.098v-7.258c0-.887-.05-1.596-.152-2.128-.101-.557-.291-.988-.57-1.292-.279-.33-.684-.545-1.216-.646-.507-.127-1.19-.215-2.052-.266V7.74h13.148v1.52c-.76.025-1.38.101-1.862.228-.456.127-.81.355-1.064.684-.253.33-.43.785-.532 1.368-.076.583-.114 1.355-.114 2.318v17.024z"/>
</svg>
